X:18
T:Splendens ceptigera
C:Livre Vermeil de Montserrat (XIVème siècle)
R:Livre
Z:Transcrit et/ou corrigé par B@D - 2005-03-13
Z:Pour toute observation mailto:-@-
M:4/4
L:1/4
K:Am
V:1
DEF2 |: DEC2 |DEF2 | AGFF | ABc2 | AGF2 |z4 |DEF2 :|
w:Splen-dens cep-ti-ge-ra, Nos-tri sis ad-vo-ca-ta, Vir-go pu-er-pe-ra. Splen-dens ce-
w:Tun-den-tes pec-to-ra, Cri-mi-na con-fi-ten-tes, Si-mus Al-tis-si-mo. Tun-den-tes

V:2
z4 | DEF2 | DEC2 |DEF2 | AGFF | ABc2 | AGF2 |
w:Splen-dens cep-ti-ge-ra, Nos-tri sis ad-vo-ca-ta, Vir-go pu-er-pe-ra.
w:Tun-den-tes pec-to-ra, Cri-mi-na con-fi-ten-tes, Si-mus Al-tis-si-mo.
V:3
z4 | z4 | DEF2 | DEC2 |DEF2 | AGFF | ABc2 | AGF2 |
w:Splen-dens cep-ti-ge-ra, Nos-tri sis ad-vo-ca-ta, Vir-go pu-er-pe-ra.
w:Tun-den-tes pec-to-ra, Cri-mi-na con-fi-ten-tes, Si-mus Al-tis-si-mo.




%%header "$P0	 $IR 	$P1"
%%footer $D - Éditions Galouvielle - 2009 - À usage librement privé dans le cadre familial

